fs/table_resize_column_28_filled.svg

<svg viewBox="0 0 28 28" fill="none" xmlns="http://www.w3.org/2000/svg" height="1em" width="1em">
  <path d="M6.75 25C4.67893 25 3 23.3211 3 21.25V6.75C3 4.67893 4.67893 3 6.75 3H7.5L7.5 11.6472L6.44203 12.8374C5.85266 13.5004 5.85266 14.4996 6.44203 15.1627L7.5 16.3529L7.5 25H6.75ZM9 25L9 17.8317C9.61537 18.1231 10.3716 18.0389 10.9126 17.558C11.4371 17.0918 11.6151 16.381 11.4275 15.75H16.5725C16.3849 16.381 16.5629 17.0918 17.0874 17.558C17.6284 18.0389 18.3846 18.1231 19 17.8317V25H9ZM17.0874 10.4421C17.6284 9.96116 18.3846 9.87692 19 10.1684V3H9L9 10.1684C9.61537 9.87692 10.3716 9.96116 10.9126 10.4421C11.4371 10.9083 11.6151 11.6191 11.4275 12.25H16.5725C16.3849 11.6191 16.5629 10.9083 17.0874 10.4421ZM21.558 15.1627L20.5 16.3529V25H21.25C23.3211 25 25 23.3211 25 21.25V6.75C25 4.67893 23.3211 3 21.25 3H20.5V11.6472L21.5528 12.8315L21.5545 12.8335C21.8167 13.1266 21.9826 13.511 21.9987 13.9328C22.0005 13.9795 22.0004 14.0262 21.9985 14.0728C21.9818 14.4772 21.8273 14.8472 21.5823 15.1347L21.5756 15.1426L21.558 15.1627ZM9.42014 13.25H18.5799L17.6895 12.2483C17.4143 11.9387 17.4422 11.4646 17.7517 11.1895C18.0613 10.9143 18.5354 10.9421 18.8106 11.2517L20.8084 13.4993C20.9215 13.6254 20.9925 13.7899 20.9995 13.9709C21.0002 13.991 21.0002 14.0112 20.9994 14.0313C20.9923 14.2045 20.9264 14.3626 20.8211 14.4861L20.8106 14.4983L18.8106 16.7483C18.5354 17.0579 18.0613 17.0858 17.7517 16.8106C17.4422 16.5354 17.4143 16.0613 17.6895 15.7517L18.5799 14.75H9.42013L10.3106 15.7517C10.5857 16.0613 10.5579 16.5354 10.2483 16.8106C9.93869 17.0858 9.46463 17.0579 9.18944 16.7483L7.18944 14.4983C6.93685 14.2141 6.93685 13.7859 7.18944 13.5017L9.18944 11.2517C9.46463 10.9421 9.93869 10.9143 10.2483 11.1895C10.5579 11.4646 10.5857 11.9387 10.3106 12.2483L9.42014 13.25ZM21.9987 13.9328L21.9985 14.0728Z" fill="#212121"/>
</svg>

<svg viewBox="0 0 28 28" fill="none" xmlns="http://www.w3.org/2000/svg" height="1em" width="1em">
  <path d="M6.75 25A3.75 3.75 0 0 1 3 21.25V6.75A3.75 3.75 0 0 1 6.75 3h.75v8.647l-1.058 1.19a1.75 1.75 0 0 0 0 2.326l1.058 1.19V25h-.75ZM9 25v-7.168a1.75 1.75 0 0 0 2.428-2.082h5.145A1.75 1.75 0 0 0 19 17.832V25H9Zm8.087-14.558A1.75 1.75 0 0 1 19 10.168V3H9v7.168a1.75 1.75 0 0 1 2.428 2.082h5.145a1.75 1.75 0 0 1 .514-1.808Zm4.471 4.72-1.058 1.19V25h.75A3.75 3.75 0 0 0 25 21.25V6.75A3.75 3.75 0 0 0 21.25 3h-.75v8.647l1.053 1.184.002.003a1.747 1.747 0 0 1 .027 2.3l-.006.009-.018.02ZM9.42 13.25h9.16l-.89-1.002a.75.75 0 0 1 1.12-.996l1.998 2.247a.748.748 0 0 1 .013.987l-.01.012-2 2.25a.75.75 0 1 1-1.122-.996l.89-1.002H9.42l.89 1.002a.75.75 0 0 1-1.12.996l-2-2.25a.75.75 0 0 1 0-.996l2-2.25a.75.75 0 0 1 1.12.996l-.89 1.002Zm12.58.683v.14Z" fill="#212121"/>
</svg>
